src/components/icon/icons/web.svg

<svg xmlns="http://www.w3.org/2000/svg" xml:space="preserve" width="70" height="70"><path d="M63.421 2.583h-57c-2.209 0-3.838 1.544-3.838 3.753v57c0 2.209 2.629 3.247 4.838 3.247h56c2.209 0 3.162-1.038 3.162-3.247v-56c0-2.209-.953-4.753-3.162-4.753zm-.838 4v8h-56v-8h56zm-56 56v-46h56v46h-56z"/><path d="M10 11.583h2a1 1 0 1 0 0-2h-2a1 1 0 1 0 0 2zM16 11.583h2a1 1 0 1 0 0-2h-2a1 1 0 1 0 0 2zM22 11.583h2a1 1 0 1 0 0-2h-2a1 1 0 1 0 0 2zM26.583 21.583a1 1 0 0 0-1-1h-14a1 1 0 0 0-1 1v26a1 1 0 0 0 1 1h14a1 1 0 0 0 1-1v-26zm-2 22.371-4.672-8.677 4.672-8.677v17.354zm-.499 2.629H13.599l5.243-9.736 5.242 9.736zm-5.242-13.708L13.3 22.583h11.083l-5.541 10.292zm-1.07 2.402-5.189 9.638V25.641l5.189 9.636zM59.583 21.583a1 1 0 0 0-1-1h-28a1 1 0 0 0-1 1v26a1 1 0 0 0 1 1h28a1 1 0 0 0 1-1v-26zm-28 2.289 11.999 11.345-11.999 11.14V23.872zm1.889-1.289h23.266L45 33.482 33.472 22.583zm11.516 13.546 11.057 10.454H33.729l11.259-10.454zm1.418-.9 11.177-10.377v20.944L46.406 35.229zM59.583 52.583a1 1 0 0 0-1-1h-47a1 1 0 0 0-1 1v7a1 1 0 0 0 1 1h47a1 1 0 0 0 1-1v-7zm-2 6h-45v-5h45v5z"/></svg>

<?xml version="1.0" encoding="utf-8"?>
<!-- Generator: Adobe Illustrator 16.0.0, SVG Export Plug-In . SVG Version: 6.00 Build 0)  -->
<!DOCTYPE svg PUBLIC "-//W3C//DTD SVG 1.1//EN" "http://www.w3.org/Graphics/SVG/1.1/DTD/svg11.dtd">
<svg version="1.1" id="Layer_1" xmlns="http://www.w3.org/2000/svg" xmlns:xlink="http://www.w3.org/1999/xlink" x="0px" y="0px"
	 width="70px" height="70px" viewBox="0 0 70 70" enable-background="new 0 0 70 70" xml:space="preserve">
<g>
	<path d="M63.421,2.583h-57c-2.209,0-3.838,1.544-3.838,3.753v57c0,2.209,2.629,3.247,4.838,3.247h56
		c2.209,0,3.162-1.038,3.162-3.247v-56C66.583,5.127,65.63,2.583,63.421,2.583z M62.583,6.583v8h-56v-8H62.583z M6.583,62.583v-46
		h56v46H6.583z"/>
	<path d="M10,11.583h2c0.553,0,1-0.447,1-1s-0.447-1-1-1h-2c-0.553,0-1,0.447-1,1S9.447,11.583,10,11.583z"/>
	<path d="M16,11.583h2c0.553,0,1-0.447,1-1s-0.447-1-1-1h-2c-0.553,0-1,0.447-1,1S15.447,11.583,16,11.583z"/>
	<path d="M22,11.583h2c0.553,0,1-0.447,1-1s-0.447-1-1-1h-2c-0.553,0-1,0.447-1,1S21.447,11.583,22,11.583z"/>
	<path d="M26.583,21.583c0-0.552-0.448-1-1-1h-14c-0.552,0-1,0.448-1,1v26c0,0.553,0.448,1,1,1h14c0.552,0,1-0.447,1-1V21.583z
		 M24.583,43.954l-4.672-8.677l4.672-8.677V43.954z M24.084,46.583H13.599l5.243-9.736L24.084,46.583z M18.842,32.875L13.3,22.583
		h11.083L18.842,32.875z M17.772,35.277l-5.189,9.638V25.641L17.772,35.277z"/>
	<path d="M59.583,21.583c0-0.552-0.447-1-1-1h-28c-0.552,0-1,0.448-1,1v26c0,0.553,0.448,1,1,1h28c0.553,0,1-0.447,1-1V21.583z
		 M31.583,23.872l11.999,11.345L31.583,46.357V23.872z M33.472,22.583h23.266L45,33.482L33.472,22.583z M44.988,36.129
		l11.057,10.454H33.729L44.988,36.129z M46.406,35.229l11.177-10.377v20.944L46.406,35.229z"/>
	<path d="M59.583,52.583c0-0.553-0.447-1-1-1h-47c-0.552,0-1,0.447-1,1v7c0,0.553,0.448,1,1,1h47c0.553,0,1-0.447,1-1V52.583z
		 M57.583,58.583h-45v-5h45V58.583z"/>
</g>
</svg>
